X:81
M:6/8
L:1/8
Q:"Andantino  "3/8=80
K:Em
!p!(Be).e (e>f[gB])|([fd]>ed) (fa).a|\
([bd]>c'b) (ab[d'b])|(b>a[f^dA]) [e3G3]|
(Be).e (e>f[gB])|([fd]>ed) (fa).a|\
([bd]>c'b) (ab[d'b])|(b>a[f^dA]) [e2G2]||
([f/^c/G/]e/)|[dF].d'.d' .d'(e'f')|(f>ed) (fa)z|\
!crescendo(!(AB^c de!crescendo)!f)|(F>ED) (FA)z|\
([bd]>c'b) (ab[d'b])|"_rall."(b>a[f^dA]) [e3G3]||

